app/img/product/ic_multiple.svg

<svg width="33" height="29" viewBox="0 0 33 29" fill="none" xmlns="http://www.w3.org/2000/svg">
    <path d="M30 11.5H10C8.61986 11.5 7.5 12.6199 7.5 14V26C7.5 27.3801 8.61986 28.5 10 28.5H30C31.3801 28.5 32.5 27.3801 32.5 26V14C32.5 12.6199 31.3801 11.5 30 11.5ZM29.5 25.5H10.5V14.5H29.5V25.5Z"
          fill="#7CEA57" stroke="#7CEA57"/>
    <path d="M24 10V2C24 0.896 23.104 0 22 0H2C0.896 0 0 0.896 0 2V14C0 15.104 0.896 16 2 16H6V14C6 11.794 7.794 10 10 10H24Z"
          fill="#022AF0"/>
</svg>

<svg width="33" height="29" fill="none" xmlns="http://www.w3.org/2000/svg"><path d="M30 11.5H10A2.5 2.5 0 0 0 7.5 14v12a2.5 2.5 0 0 0 2.5 2.5h20a2.5 2.5 0 0 0 2.5-2.5V14a2.5 2.5 0 0 0-2.5-2.5Zm-.5 14h-19v-11h19v11Z" fill="#7CEA57" stroke="#7CEA57"/><path d="M24 10V2a2 2 0 0 0-2-2H2a2 2 0 0 0-2 2v12a2 2 0 0 0 2 2h4v-2c0-2.206 1.794-4 4-4h14Z" fill="#022AF0"/></svg>
